X:471
T: Gu zhi diao
N: C0000
O: Asien, Ostasien, China, Shandong
S: Xiaodiao - Artikel, Essen 1991]
N: Das Lied wird vierphrasig aufgefat.
R: Xiaodiao, Wuge]
M: 2/4
L: 1/16
K: F
c3dc2d2 | gagaf2d2 | c2F2GFGA | c8 |
A3cA2c2 | F2GFD2F2 | cAcdF2DF | G8 |
AcGAc2f2 | dcAcG4 | F2GFDCD2 | C8 |
c3df2dc | A2cAG3A | c2AcG2D2 | F8

@@@ Tune index: 6472
